X: 266
T:Showman's Fancy
M:C|
L:1/8
R:hornpipe
D:Johnny B. Connolly: Bridgetown
Z:Devin McCabe
K:D
(3EFG|:A^GAB Adfd|(3Bcd gf edcB|A^GAd AFDE|FEE^D E2 (3EFG|
!A^GAB Adfd|(3Bcd gf edcB|Aaaf gecd|1eddc d2 (3EFG:|2eddc d2cd|
!:e^def gece|dcde fdA2|(3gfg (3fgf (3efe d2|(3cBc (3BcB A2 (3EFG|
!A^GAB Adfd|(3Bcd gf edcB|Aaaf gecd|1eddc d2cd:|2eddc d2 (3EFG||
